findly-builder/apps/searchassist/src/assets/icons/actions/external-link.svg

<svg width="12" height="12" viewBox="0 0 12 12" fill="none" xmlns="http://www.w3.org/2000/svg">
<path d="M5.63502 12C5.34487 12 5.10966 11.7648 5.10966 11.4746C5.10966 11.2006 5.31947 10.9756 5.58721 10.9514L5.63502 10.9493H10.0147C10.5124 10.9493 10.9193 10.5602 10.9477 10.0696L10.9493 10.0147V1.98527C10.9493 1.48757 10.5602 1.08074 10.0696 1.05231L10.0147 1.05073H1.98527C1.48757 1.05073 1.08074 1.43978 1.05231 1.93036L1.05073 1.98527V6.36498C1.05073 6.65513 0.815513 6.89034 0.525363 6.89034C0.251332 6.89034 0.0263041 6.68053 0.00214672 6.41279L0 6.36498V1.98527C0 0.913753 0.848891 0.0405089 1.91084 0.00136948L1.98527 0H10.0147C11.0862 0 11.9595 0.848891 11.9986 1.91084L12 1.98527V10.0147C12 11.0862 11.1511 11.9595 10.0892 11.9986L10.0147 12H5.63502Z" fill="#0D6EFD"/>
<path d="M8.0029 3.60398C8.27693 3.60398 8.50196 3.81379 8.52612 4.08153L8.52826 4.12934L8.52826 7.04915C8.52826 7.3393 8.29305 7.57451 8.0029 7.57451C7.72887 7.57451 7.50384 7.36471 7.47968 7.09697L7.47754 7.04915L7.47733 5.4039L2.38038 10.5008C2.17521 10.706 1.84257 10.706 1.6374 10.5008C1.4443 10.3077 1.43294 10.0017 1.60333 9.79535L1.6374 9.75787L6.74079 4.65449L5.08309 4.65471C4.80906 4.65471 4.58403 4.4449 4.55988 4.17716L4.55773 4.12934C4.55773 3.85531 4.76753 3.63029 5.03527 3.60613L5.08309 3.60398H8.0029Z" fill="#0D6EFD"/>
</svg>

<svg width="12" height="12" fill="none" xmlns="http://www.w3.org/2000/svg"><path d="M5.635 12a.525.525 0 0 1-.048-1.049l.048-.002h4.38a.936.936 0 0 0 .933-.88l.001-.054v-8.03a.935.935 0 0 0-.88-.933l-.054-.001h-8.03a.935.935 0 0 0-.933.88l-.001.054v4.38a.525.525 0 0 1-1.049.048L0 6.365v-4.38C0 .914.849.041 1.91.001L1.986 0h8.03C11.087 0 11.96.849 12 1.91l.001.075v8.03a1.985 1.985 0 0 1-1.91 1.984l-.075.001h-4.38Z" fill="#0D6EFD"/><path d="M8.003 3.604c.274 0 .499.21.523.478l.002.047v2.92a.525.525 0 0 1-1.048.048l-.002-.048V5.404L2.38 10.5a.525.525 0 0 1-.777-.706l.034-.037 5.104-5.104H5.083a.525.525 0 0 1-.523-.477l-.002-.048c0-.274.21-.499.477-.523l.048-.002h2.92Z" fill="#0D6EFD"/></svg>
